ix/3square_broken.svg

<svg viewBox="0 0 24 24" fill="none" xmlns="http://www.w3.org/2000/svg" height="1em" width="1em">
  <path d="M12 17v2.38c0 1.87-.75 2.62-2.63 2.62H4.62C2.75 22 2 21.25 2 19.38v-4.75C2 12.75 2.75 12 4.62 12H7v2.37C7 16.25 7.75 17 9.62 17H12Z" stroke="#292D32" stroke-width="1.5" stroke-linecap="round" stroke-linejoin="round"/>
  <path d="M17 12v2.37c0 1.88-.75 2.63-2.63 2.63H9.62C7.75 17 7 16.25 7 14.37V9.62C7 7.75 7.75 7 9.62 7H12v2.37c0 1.88.75 2.63 2.62 2.63H17Z" stroke="#292D32" stroke-width="1.5" stroke-linecap="round" stroke-linejoin="round"/>
  <path d="M22 9.37c0 1.88-.75 2.63-2.63 2.63h-4.75C12.75 12 12 11.25 12 9.37V4.62C12 2.75 12.75 2 14.62 2h4.75C21.25 2 22 2.75 22 4.62" stroke="#292D32" stroke-width="1.5" stroke-linecap="round" stroke-linejoin="round"/>
</svg>

<svg viewBox="0 0 24 24" fill="none" xmlns="http://www.w3.org/2000/svg" height="1em" width="1em">
  <path d="M12 17V19.38C12 21.25 11.25 22 9.37 22H4.62C2.75 22 2 21.25 2 19.38V14.63C2 12.75 2.75 12 4.62 12H7V14.37C7 16.25 7.75 17 9.62 17H12Z" stroke="#292D32" stroke-width="1.5" stroke-linecap="round" stroke-linejoin="round"/>
  <path d="M17 12V14.37C17 16.25 16.25 17 14.37 17H9.62C7.75 17 7 16.25 7 14.37V9.62C7 7.75 7.75 7 9.62 7H12V9.37C12 11.25 12.75 12 14.62 12H17Z" stroke="#292D32" stroke-width="1.5" stroke-linecap="round" stroke-linejoin="round"/>
  <path d="M22 9.37C22 11.25 21.25 12 19.37 12H14.62C12.75 12 12 11.25 12 9.37V4.62C12 2.75 12.75 2 14.62 2H19.37C21.25 2 22 2.75 22 4.62" stroke="#292D32" stroke-width="1.5" stroke-linecap="round" stroke-linejoin="round"/>
</svg>
